X: 266
T: 267. Vater unser im Himmelreich
N: Derived from chor267.krn
C: Johann Sebastian Bach
%%abc-version 2.0
%%abcx-abcm2ps-target-version 5.9.1 (29 Sep 2008)
%%abc-creator hum2abc beta
%%abcx-conversion-date 2019/03/11 17:28:19
%%abc-edited-by Craig Stuart Sapp
%%humdrum-veritas 3863204368
%%humdrum-veritas-data 2944965220
%%
%%barnumbers 0
L: 1/4
M: C
%%staves [1 2 3 4]
V: 1 clef=treble
V: 2 clef=treble
V: 3 clef=treble-8
V: 4 clef=bass
K: F
[V:1] A [I:setbarnb 1]| 
[V:2] F | 
[V:3] d | 
[V:4] D, | 
[V:1] AFGA | 
[V:2] EDD/^C/D | 
[V:3] AAGF/G/ | 
[V:4] ^C,D,E,D,/E,/ | 
[V:1] FE!fermata!DA | 
[V:2] D^C!fermata!A,E | 
[V:3] AA/G/!fermata!FA | 
[V:4] F,/G,/ A,/A,,/!fermata!D,=C, | 
[V:1] AGcA | 
[V:2] D3/E/F^C | 
[V:3] B/=c/dc/d/e | 
[V:4] B,,B,A,/G,/ F,/E,/ | 
[V:1] FG!fermata!AA | 
[V:2] DD!fermata!^CE | 
[V:3] AB!fermata!E=c/B/ | 
[V:4] D,/C,/B,,!fermata!A,,A,/G,/ | 
[V:1] cdfe | 
[V:2] FAGA/G/ | 
[V:3] Af/e/de | 
[V:4] F,/E,/ D,/C,/=B,,^C, | 
[V:1] d^c!fermata!dd | 
[V:2] FE!fermata!^FG | 
[V:3] AA!fermata!A=B | 
[V:4] D,A,,!fermata!D,G, | 
[V:1] edc=B | 
[V:2] G/A/=BA^G | 
[V:3] cfed | 
[V:4] C/=B,/ A,/^G,/ A,/=G,/ F,/E,/ | 
[V:1] A=B!fermata!Ad | 
[V:2] A3/^G/!fermata!EE | 
[V:3] cf/e/!fermata!^c=B | 
[V:4] F,/E,/ D,/E,/!fermata!A,,^G,, | 
[V:1] c=Bc/_B/A | 
[V:2] E/F/=GGF | 
[V:3] =cdcc | 
[V:4] A,,/A,/ =G,/F,/E,F,/E,/ | 
[V:1] AG!fermata!FA | 
[V:2] F3/E/!fermata!F^F | 
[V:3] d3/c/!fermata!_A_e | 
[V:4] D,/C,/ B,,/C,/!fermata!_D,C, | 
[V:1] BAAG | 
[V:2] G/=F/ED/^C/ D/E/ | 
[V:3] d3/^c/d2- | 
[V:4] G,,A,,B,,/A,,/ =B,,/^C,/ | 
[V:1] FE!fermata!D2 |]  
[V:2] A,/D/ D/^C/!fermata!A,2 |]  
[V:3] d/A/ _B/A/!fermata!^F2 |]  
[V:4] D,/F,/ G,/A,/!fermata!D,2 |]  



